public/assets/standards/sci-ai/shape-decor.svg

<svg width="39" height="108" viewBox="0 0 39 108" fill="none" xmlns="http://www.w3.org/2000/svg">
<path d="M37.8151 108.003H1.31154C0.870857 108.003 0.503906 107.635 0.503906 107.195C0.503906 106.754 0.870857 106.387 1.31154 106.387H37.8151C38.2558 106.387 38.6231 106.754 38.6231 107.195C38.6231 107.635 38.2558 108.003 37.8151 108.003Z" fill="#A8C653"/>
<path d="M30.9103 107.489C30.4696 107.489 30.1758 107.122 30.1758 106.754V91.6241C30.1758 91.1834 30.543 90.8896 30.9103 90.8896C31.2775 90.8896 31.6447 91.2569 31.6447 91.6241V106.754C31.6447 107.122 31.2775 107.489 30.9103 107.489Z" fill="#A8C653"/>
<path d="M30.9104 94.4883C32.4518 94.4883 33.7012 93.2387 33.7012 91.6972C33.7012 90.1558 32.4518 88.9062 30.9104 88.9062C29.3689 88.9062 28.1191 90.1558 28.1191 91.6972C28.1191 93.2387 29.3689 94.4883 30.9104 94.4883Z" fill="#A8C653"/>
<path d="M8.21592 107.341C7.77524 107.341 7.48145 106.974 7.48145 106.607V91.4767C7.48145 91.036 7.84868 90.7422 8.21592 90.7422C8.58316 90.7422 8.9504 91.1094 8.9504 91.4767V106.607C9.02384 106.974 8.65661 107.341 8.21592 107.341Z" fill="#A8C653"/>
<path d="M11.0801 91.5503C11.0801 90.0079 9.83131 88.7593 8.28891 88.7593C6.74651 88.7593 5.49805 90.0079 5.49805 91.5503C5.49805 93.0927 6.74651 94.3413 8.28891 94.3413C9.83131 94.3413 11.0801 93.0927 11.0801 91.5503Z" fill="#A8C653"/>
<path d="M19.3063 78.7703C16.6622 78.7703 12.6962 76.4934 9.17072 72.8945C7.04074 70.7645 2.11975 65.0356 2.1932 58.6457C2.1932 55.8547 2.9276 53.0637 4.3231 50.5664C4.76379 49.7585 5.27792 49.024 5.79206 48.2896C6.59998 47.1878 6.82047 45.7189 6.30633 44.4703C5.57186 42.7076 5.20462 40.8714 5.20462 38.9617C5.20462 35.73 6.23296 32.6452 8.21604 30.148C9.17086 28.8994 9.31747 27.357 8.65644 25.9615C7.77507 24.1987 7.33453 22.3626 7.33453 20.3795C7.33453 13.9161 14.8998 0.62207 19.6004 0.62207C24.8886 0.62207 31.8659 14.2099 31.8659 20.3795C31.8659 22.3626 31.4254 24.1987 30.544 25.9615C29.883 27.357 30.03 28.8994 30.9848 30.148C32.9679 32.7187 33.9959 35.73 33.9959 38.9617C33.9959 40.8714 33.6286 42.7076 32.8941 44.4703C32.38 45.7189 32.6005 47.1878 33.4084 48.2896C35.7587 51.3744 37.0073 54.9733 37.0073 58.866C36.9338 68.708 26.7245 78.7703 19.3063 78.7703ZM5.71854 51.3009C4.46993 53.5043 3.88263 56.075 3.80919 58.6457C3.73574 62.6853 6.23289 67.5328 10.346 71.7194C13.5042 74.951 17.1764 77.081 19.3799 77.081C25.9901 77.081 35.3917 67.6063 35.3917 58.7926C35.3917 55.2671 34.2896 51.9619 32.1597 49.2444C30.9845 47.702 30.6907 45.572 31.4252 43.8093C32.0862 42.2669 32.3802 40.5776 32.3802 38.8883C32.3802 36.0238 31.4253 33.3062 29.6625 31.0294C28.3405 29.3401 28.1203 26.9898 29.0751 25.1536C29.8096 23.6846 30.2503 22.0688 30.2503 20.306C30.2503 14.063 23.2728 2.16447 19.6004 2.16447C16.4422 2.16447 8.95052 13.9161 8.95052 20.306C8.95052 21.9953 9.31747 23.6112 10.1254 25.1536C11.0802 27.0632 10.86 29.3401 9.53796 31.0294C7.77521 33.3062 6.82025 36.0238 6.82025 38.8883C6.82025 40.5776 7.11426 42.2669 7.77528 43.8093C8.50976 45.572 8.21597 47.702 7.04081 49.2444C6.52668 49.9054 6.08577 50.6399 5.71854 51.3009Z" fill="#A8C653"/>
<path d="M19.601 107.855C19.1603 107.855 18.793 107.488 18.793 107.047V15.9725C18.793 15.5318 19.1603 15.1646 19.601 15.1646C20.0416 15.1646 20.4086 15.5318 20.4086 15.9725V106.974C20.4086 107.488 20.0416 107.855 19.601 107.855Z" fill="#A8C653"/>
</svg>

<svg xmlns="http://www.w3.org/2000/svg" width="39" height="108" fill="none" viewBox="0 0 39 108"><path fill="#a8c653" d="M37.815 108.003H1.312a.815.815 0 0 1-.808-.808c0-.441.367-.808.808-.808h36.503c.44 0 .808.367.808.808 0 .44-.367.808-.808.808"/><path fill="#a8c653" d="M30.91 107.489a.736.736 0 0 1-.734-.735v-15.13c0-.44.367-.734.734-.734s.735.367.735.734v15.13c0 .368-.367.735-.735.735"/><path fill="#a8c653" d="M30.91 94.488a2.79 2.79 0 1 0 0-5.581 2.79 2.79 0 0 0 0 5.581M8.216 107.341a.736.736 0 0 1-.735-.734v-15.13c0-.441.368-.735.735-.735s.734.367.734.735v15.13c.074.367-.293.734-.734.734"/><path fill="#a8c653" d="M11.08 91.55a2.79 2.79 0 0 0-2.791-2.79 2.79 2.79 0 0 0-2.79 2.79 2.79 2.79 0 0 0 2.79 2.791 2.79 2.79 0 0 0 2.791-2.79m8.226-12.781c-2.644 0-6.61-2.277-10.135-5.876-2.13-2.13-7.051-7.858-6.978-14.248 0-2.791.735-5.582 2.13-8.08.44-.808.955-1.542 1.47-2.276.807-1.102 1.027-2.571.513-3.82a14.2 14.2 0 0 1-1.101-5.508c0-3.232 1.028-6.317 3.011-8.814.955-1.249 1.101-2.791.44-4.186a12.25 12.25 0 0 1-1.321-5.582C7.335 13.916 14.9.622 19.6.622c5.289 0 12.266 13.588 12.266 19.758 0 1.983-.44 3.819-1.322 5.582-.661 1.395-.514 2.937.44 4.186 1.984 2.57 3.012 5.582 3.012 8.814q0 2.865-1.102 5.508c-.514 1.249-.294 2.718.514 3.82 2.35 3.084 3.6 6.683 3.6 10.576-.074 9.842-10.284 19.904-17.702 19.904M5.72 51.3c-1.25 2.204-1.836 4.775-1.91 7.346-.073 4.04 2.424 8.887 6.537 13.073 3.158 3.232 6.83 5.362 9.034 5.362 6.61 0 16.012-9.475 16.012-18.288 0-3.526-1.102-6.831-3.232-9.549-1.175-1.542-1.47-3.672-.735-5.435.661-1.542.955-3.231.955-4.92 0-2.865-.955-5.583-2.718-7.86-1.322-1.689-1.542-4.04-.587-5.875.735-1.47 1.175-3.085 1.175-4.848 0-6.243-6.977-18.142-10.65-18.142-3.158 0-10.65 11.752-10.65 18.142 0 1.69.367 3.305 1.175 4.848a5.51 5.51 0 0 1-.587 5.875c-1.763 2.277-2.718 4.995-2.718 7.86 0 1.689.294 3.378.955 4.92.735 1.763.441 3.893-.734 5.435-.514.661-.955 1.396-1.322 2.057"/><path fill="#a8c653" d="M19.601 107.855a.815.815 0 0 1-.808-.808V15.973c0-.441.367-.808.808-.808.44 0 .808.367.808.808v91.001c0 .514-.367.881-.808.881"/></svg>
